outputs/icons/enterprise/barcode_round.svg

<svg xmlns="http://www.w3.org/2000/svg" width="1200" height="1200" fill="none"><path fill="#000" d="M250 200H100v800h150zM1100 200H950v800h150zM450 200h100v700H450zM400 200h-99.946L300 900h100zM700 200h100v700H700zM650 200h-50v700h50zM850 200h50v700h-50z"/></svg>

<svg width="1200" height="1200" viewBox="0 0 1200 1200" fill="none" xmlns="http://www.w3.org/2000/svg"><path d="M250 200H100V1000H250V200Z" fill="black"/><path d="M1100 200H950V1000H1100V200Z" fill="black"/><path d="M450 200H550V900H450V200Z" fill="black"/><path d="M400 200H300.054L300 900H400V200Z" fill="black"/><path d="M700 200H800V900H700V200Z" fill="black"/><path d="M650 200H600V900H650V200Z" fill="black"/><path d="M850 200H900V900H850V200Z" fill="black"/></svg>
